images/3247281.svg

<?xml version="1.0" encoding="UTF-8"?>
<svg xmlns="http://www.w3.org/2000/svg" xmlns:xlink="http://www.w3.org/1999/xlink" width="300pt" height="300pt" viewBox="0 0 300 300" version="1.1">
<defs>
<g>
<symbol overflow="visible" id="glyph0-0">
<path style="stroke:none;" d="M 0.453125 1.59375 L 0.453125 -6.34375 L 4.953125 -6.34375 L 4.953125 1.59375 Z M 0.953125 1.09375 L 4.453125 1.09375 L 4.453125 -5.84375 L 0.953125 -5.84375 Z M 0.953125 1.09375 "/>
</symbol>
<symbol overflow="visible" id="glyph0-1">
<path style="stroke:none;" d="M 3.546875 -5.953125 C 2.898438 -5.953125 2.382812 -5.710938 2 -5.234375 C 1.625 -4.753906 1.4375 -4.101562 1.4375 -3.28125 C 1.4375 -2.445312 1.625 -1.789062 2 -1.3125 C 2.382812 -0.832031 2.898438 -0.59375 3.546875 -0.59375 C 4.191406 -0.59375 4.703125 -0.832031 5.078125 -1.3125 C 5.453125 -1.789062 5.640625 -2.445312 5.640625 -3.28125 C 5.640625 -4.101562 5.453125 -4.753906 5.078125 -5.234375 C 4.703125 -5.710938 4.191406 -5.953125 3.546875 -5.953125 Z M 3.546875 -6.6875 C 4.460938 -6.6875 5.195312 -6.375 5.75 -5.75 C 6.300781 -5.132812 6.578125 -4.3125 6.578125 -3.28125 C 6.578125 -2.238281 6.300781 -1.410156 5.75 -0.796875 C 5.195312 -0.179688 4.460938 0.125 3.546875 0.125 C 2.617188 0.125 1.878906 -0.179688 1.328125 -0.796875 C 0.773438 -1.410156 0.5 -2.238281 0.5 -3.28125 C 0.5 -4.3125 0.773438 -5.132812 1.328125 -5.75 C 1.878906 -6.375 2.617188 -6.6875 3.546875 -6.6875 Z M 3.546875 -6.6875 "/>
</symbol>
<symbol overflow="visible" id="glyph0-2">
<path style="stroke:none;" d="M 0.890625 -6.5625 L 1.765625 -6.5625 L 1.765625 -3.875 L 5 -3.875 L 5 -6.5625 L 5.890625 -6.5625 L 5.890625 0 L 5 0 L 5 -3.125 L 1.765625 -3.125 L 1.765625 0 L 0.890625 0 Z M 0.890625 -6.5625 "/>
</symbol>
<symbol overflow="visible" id="glyph0-3">
<path style="stroke:none;" d="M 0.890625 -6.5625 L 2.078125 -6.5625 L 4.984375 -1.078125 L 4.984375 -6.5625 L 5.84375 -6.5625 L 5.84375 0 L 4.65625 0 L 1.75 -5.484375 L 1.75 0 L 0.890625 0 Z M 0.890625 -6.5625 "/>
</symbol>
</g>
</defs>
<g id="surface43633">
<rect x="0" y="0" width="300" height="300" style="fill:rgb(100%,100%,100%);fill-opacity:1;stroke:none;"/>
<path style=" stroke:none;fill-rule:nonzero;fill:rgb(0%,0%,0%);fill-opacity:1;" d="M 245.667969 135.210938 L 259.46875 149.007812 L 263.359375 143.449219 Z M 245.667969 135.210938 "/>
<path style="fill:none;stroke-width:1.2;stroke-linecap:butt;stroke-linejoin:miter;stroke:rgb(0%,0%,0%);stroke-opacity:1;stroke-miterlimit:10;" d="M 245.667969 135.210938 L 247.335938 116.066406 "/>
<path style="fill:none;stroke-width:1.2;stroke-linecap:butt;stroke-linejoin:miter;stroke:rgb(0%,0%,0%);stroke-opacity:1;stroke-miterlimit:10;" d="M 245.667969 135.210938 L 236.960938 139.277344 "/>
<path style="fill:none;stroke-width:1.2;stroke-linecap:butt;stroke-linejoin:miter;stroke:rgb(0%,0%,100%);stroke-opacity:1;stroke-miterlimit:10;" d="M 236.960938 139.277344 L 228.253906 143.339844 "/>
<path style="fill:none;stroke-width:1.2;stroke-linecap:butt;stroke-linejoin:miter;stroke:rgb(0%,0%,0%);stroke-opacity:1;stroke-miterlimit:10;" d="M 247.335938 116.066406 L 256.042969 112.003906 "/>
<path style="fill:none;stroke-width:1.2;stroke-linecap:butt;stroke-linejoin:miter;stroke:rgb(100%,0%,0%);stroke-opacity:1;stroke-miterlimit:10;" d="M 256.042969 112.003906 L 264.75 107.941406 "/>
<path style=" stroke:none;fill-rule:nonzero;fill:rgb(100%,100%,100%);fill-opacity:1;" d="M 257.75 102.441406 L 272.75 102.441406 L 272.75 113.441406 L 257.75 113.441406 Z M 257.75 102.441406 "/>
<g style="fill:rgb(100%,0%,0%);fill-opacity:1;">
  <use xlink:href="#glyph0-1" x="257.75" y="111.104492"/>
  <use xlink:href="#glyph0-2" x="265.091797" y="111.104492"/>
</g>
<path style="fill:none;stroke-width:1.2;stroke-linecap:butt;stroke-linejoin:miter;stroke:rgb(0%,0%,100%);stroke-opacity:1;stroke-miterlimit:10;" d="M 228.253906 143.339844 L 220.382812 137.832031 "/>
<path style="fill:none;stroke-width:1.2;stroke-linecap:butt;stroke-linejoin:miter;stroke:rgb(0%,0%,0%);stroke-opacity:1;stroke-miterlimit:10;" d="M 220.382812 137.832031 L 212.507812 132.324219 "/>
<path style=" stroke:none;fill-rule:nonzero;fill:rgb(100%,100%,100%);fill-opacity:1;" d="M 221.253906 137.839844 L 235.253906 137.839844 L 235.253906 148.839844 L 221.253906 148.839844 Z M 221.253906 137.839844 "/>
<g style="fill:rgb(0%,0%,100%);fill-opacity:1;">
  <use xlink:href="#glyph0-3" x="221.253906" y="146.50293"/>
  <use xlink:href="#glyph0-2" x="228.231445" y="146.50293"/>
</g>
<path style="fill:none;stroke-width:1.2;stroke-linecap:butt;stroke-linejoin:miter;stroke:rgb(0%,0%,0%);stroke-opacity:1;stroke-miterlimit:10;" d="M 214.761719 132.519531 L 215.59375 122.945312 "/>
<path style="fill:none;stroke-width:1.2;stroke-linecap:butt;stroke-linejoin:miter;stroke:rgb(100%,0%,0%);stroke-opacity:1;stroke-miterlimit:10;" d="M 215.59375 122.945312 L 216.429688 113.375 "/>
<path style="fill:none;stroke-width:1.2;stroke-linecap:butt;stroke-linejoin:miter;stroke:rgb(0%,0%,0%);stroke-opacity:1;stroke-miterlimit:10;" d="M 210.257812 132.125 L 211.089844 122.554688 "/>
<path style="fill:none;stroke-width:1.2;stroke-linecap:butt;stroke-linejoin:miter;stroke:rgb(100%,0%,0%);stroke-opacity:1;stroke-miterlimit:10;" d="M 211.089844 122.554688 L 211.925781 112.980469 "/>
<path style="fill:none;stroke-width:1;stroke-linecap:butt;stroke-linejoin:miter;stroke:rgb(0%,0%,0%);stroke-opacity:1;stroke-miterlimit:10;" d="M 195.09375 140.449219 L 195.09375 140.449219 M 197.992188 139.671875 L 197.550781 138.726562 M 200.890625 138.894531 L 200.007812 137.007812 M 203.789062 138.117188 L 202.464844 135.285156 M 206.6875 137.339844 L 204.921875 133.5625 M 209.582031 136.566406 L 207.378906 131.839844 M 212.480469 135.789062 L 209.835938 130.117188 M 213.941406 135.394531 L 211.074219 129.25 "/>
<path style=" stroke:none;fill-rule:nonzero;fill:rgb(100%,100%,100%);fill-opacity:1;" d="M 210.175781 107.679688 L 218.175781 107.679688 L 218.175781 118.679688 L 210.175781 118.679688 Z M 210.175781 107.679688 "/>
<g style="fill:rgb(100%,0%,0%);fill-opacity:1;">
  <use xlink:href="#glyph0-1" x="210.175781" y="116.342773"/>
</g>
<path style="fill:none;stroke-width:1.2;stroke-linecap:butt;stroke-linejoin:miter;stroke:rgb(0%,0%,0%);stroke-opacity:1;stroke-miterlimit:10;" d="M 195.09375 140.449219 L 198.109375 159.429688 "/>
<path style="fill:none;stroke-width:1.2;stroke-linecap:butt;stroke-linejoin:miter;stroke:rgb(0%,0%,0%);stroke-opacity:1;stroke-miterlimit:10;" d="M 195.09375 140.449219 L 179.351562 129.433594 "/>
<path style="fill:none;stroke-width:1;stroke-linecap:butt;stroke-linejoin:miter;stroke:rgb(0%,0%,0%);stroke-opacity:1;stroke-miterlimit:10;" d="M 179.351562 129.433594 L 179.351562 129.433594 M 178.574219 126.535156 L 177.628906 126.976562 M 177.796875 123.636719 L 175.90625 124.519531 M 177.019531 120.738281 L 174.183594 122.0625 M 176.242188 117.84375 L 172.460938 119.605469 M 175.464844 114.945312 L 170.742188 117.148438 M 174.6875 112.046875 L 169.019531 114.691406 M 174.296875 110.585938 L 168.148438 113.453125 "/>
<path style="fill:none;stroke-width:1.2;stroke-linecap:butt;stroke-linejoin:miter;stroke:rgb(0%,0%,0%);stroke-opacity:1;stroke-miterlimit:10;" d="M 160.207031 127.765625 L 179.351562 129.433594 "/>
<path style="fill:none;stroke-width:1.2;stroke-linecap:butt;stroke-linejoin:miter;stroke:rgb(0%,0%,0%);stroke-opacity:1;stroke-miterlimit:10;" d="M 171.222656 112.019531 L 160.207031 127.765625 "/>
<path style="fill:none;stroke-width:1;stroke-linecap:butt;stroke-linejoin:miter;stroke:rgb(0%,0%,0%);stroke-opacity:1;stroke-miterlimit:10;" d="M 160.207031 127.765625 L 160.207031 127.765625 M 157.746094 126.042969 L 157.308594 126.988281 M 155.289062 124.324219 L 154.410156 126.214844 M 152.832031 122.605469 L 151.511719 125.4375 M 150.375 120.882812 L 148.613281 124.664062 M 147.917969 119.164062 L 145.714844 123.890625 M 145.457031 117.441406 L 142.816406 123.113281 M 144.21875 116.574219 L 141.355469 122.722656 "/>
<path style="fill:none;stroke-width:1.2;stroke-linecap:butt;stroke-linejoin:miter;stroke:rgb(0%,0%,0%);stroke-opacity:1;stroke-miterlimit:10;" d="M 160.207031 127.765625 L 155.238281 146.328125 "/>
<path style=" stroke:none;fill-rule:nonzero;fill:rgb(0%,0%,0%);fill-opacity:1;" d="M 155.238281 146.328125 L 166.433594 162.3125 L 171.226562 157.511719 Z M 155.238281 146.328125 "/>
<path style="fill:none;stroke-width:1.2;stroke-linecap:butt;stroke-linejoin:miter;stroke:rgb(0%,0%,0%);stroke-opacity:1;stroke-miterlimit:10;" d="M 155.238281 146.328125 L 145.957031 148.820312 "/>
<path style="fill:none;stroke-width:1.2;stroke-linecap:butt;stroke-linejoin:miter;stroke:rgb(0%,0%,100%);stroke-opacity:1;stroke-miterlimit:10;" d="M 145.957031 148.820312 L 136.679688 151.308594 "/>
<path style="fill:none;stroke-width:1.2;stroke-linecap:butt;stroke-linejoin:miter;stroke:rgb(0%,0%,0%);stroke-opacity:1;stroke-miterlimit:10;" d="M 168.832031 159.914062 L 163.863281 178.476562 "/>
<path style="fill:none;stroke-width:1.2;stroke-linecap:butt;stroke-linejoin:miter;stroke:rgb(0%,0%,0%);stroke-opacity:1;stroke-miterlimit:10;" d="M 172.703125 162.9375 L 168.730469 177.789062 "/>
<path style="fill:none;stroke-width:1.2;stroke-linecap:butt;stroke-linejoin:miter;stroke:rgb(0%,0%,0%);stroke-opacity:1;stroke-miterlimit:10;" d="M 187.390625 154.933594 L 168.832031 159.914062 "/>
<path style="fill:none;stroke-width:1.2;stroke-linecap:butt;stroke-linejoin:miter;stroke:rgb(0%,0%,0%);stroke-opacity:1;stroke-miterlimit:10;" d="M 163.863281 178.476562 L 177.457031 192.058594 "/>
<path style="fill:none;stroke-width:1.2;stroke-linecap:butt;stroke-linejoin:miter;stroke:rgb(0%,0%,0%);stroke-opacity:1;stroke-miterlimit:10;" d="M 177.457031 192.058594 L 196.015625 187.078125 "/>
<path style="fill:none;stroke-width:1.2;stroke-linecap:butt;stroke-linejoin:miter;stroke:rgb(0%,0%,0%);stroke-opacity:1;stroke-miterlimit:10;" d="M 178.140625 187.195312 L 192.988281 183.210938 "/>
<path style="fill:none;stroke-width:1.2;stroke-linecap:butt;stroke-linejoin:miter;stroke:rgb(0%,0%,0%);stroke-opacity:1;stroke-miterlimit:10;" d="M 196.015625 187.078125 L 200.984375 168.515625 "/>
<path style="fill:none;stroke-width:1.2;stroke-linecap:butt;stroke-linejoin:miter;stroke:rgb(0%,0%,0%);stroke-opacity:1;stroke-miterlimit:10;" d="M 200.984375 168.515625 L 187.390625 154.933594 "/>
<path style="fill:none;stroke-width:1.2;stroke-linecap:butt;stroke-linejoin:miter;stroke:rgb(0%,0%,0%);stroke-opacity:1;stroke-miterlimit:10;" d="M 196.429688 170.355469 L 185.554688 159.488281 "/>
<path style="fill:none;stroke-width:1.2;stroke-linecap:butt;stroke-linejoin:miter;stroke:rgb(0%,0%,100%);stroke-opacity:1;stroke-miterlimit:10;" d="M 136.679688 151.308594 L 129.882812 144.515625 "/>
<path style="fill:none;stroke-width:1.2;stroke-linecap:butt;stroke-linejoin:miter;stroke:rgb(0%,0%,0%);stroke-opacity:1;stroke-miterlimit:10;" d="M 129.882812 144.515625 L 123.085938 137.726562 "/>
<path style=" stroke:none;fill-rule:nonzero;fill:rgb(100%,100%,100%);fill-opacity:1;" d="M 129.679688 145.808594 L 143.679688 145.808594 L 143.679688 156.808594 L 129.679688 156.808594 Z M 129.679688 145.808594 "/>
<g style="fill:rgb(0%,0%,100%);fill-opacity:1;">
  <use xlink:href="#glyph0-3" x="129.679688" y="154.47168"/>
  <use xlink:href="#glyph0-2" x="136.657227" y="154.47168"/>
</g>
<path style="fill:none;stroke-width:1.2;stroke-linecap:butt;stroke-linejoin:miter;stroke:rgb(0%,0%,0%);stroke-opacity:1;stroke-miterlimit:10;" d="M 125.269531 138.308594 L 127.753906 129.027344 "/>
<path style="fill:none;stroke-width:1.2;stroke-linecap:butt;stroke-linejoin:miter;stroke:rgb(100%,0%,0%);stroke-opacity:1;stroke-miterlimit:10;" d="M 127.753906 129.027344 L 130.234375 119.746094 "/>
<path style="fill:none;stroke-width:1.2;stroke-linecap:butt;stroke-linejoin:miter;stroke:rgb(0%,0%,0%);stroke-opacity:1;stroke-miterlimit:10;" d="M 120.902344 137.140625 L 123.382812 127.859375 "/>
<path style="fill:none;stroke-width:1.2;stroke-linecap:butt;stroke-linejoin:miter;stroke:rgb(100%,0%,0%);stroke-opacity:1;stroke-miterlimit:10;" d="M 123.382812 127.859375 L 125.867188 118.578125 "/>
<path style="fill:none;stroke-width:1.2;stroke-linecap:butt;stroke-linejoin:miter;stroke:rgb(0%,0%,0%);stroke-opacity:1;stroke-miterlimit:10;" d="M 123.085938 137.726562 L 113.804688 140.214844 "/>
<path style="fill:none;stroke-width:1.2;stroke-linecap:butt;stroke-linejoin:miter;stroke:rgb(100%,0%,0%);stroke-opacity:1;stroke-miterlimit:10;" d="M 113.804688 140.214844 L 104.523438 142.703125 "/>
<path style=" stroke:none;fill-rule:nonzero;fill:rgb(100%,100%,100%);fill-opacity:1;" d="M 124.050781 113.660156 L 132.050781 113.660156 L 132.050781 124.660156 L 124.050781 124.660156 Z M 124.050781 113.660156 "/>
<g style="fill:rgb(100%,0%,0%);fill-opacity:1;">
  <use xlink:href="#glyph0-1" x="124.050781" y="122.323242"/>
</g>
<path style="fill:none;stroke-width:1.2;stroke-linecap:butt;stroke-linejoin:miter;stroke:rgb(100%,0%,0%);stroke-opacity:1;stroke-miterlimit:10;" d="M 104.523438 142.703125 L 97.726562 135.914062 "/>
<path style="fill:none;stroke-width:1.2;stroke-linecap:butt;stroke-linejoin:miter;stroke:rgb(0%,0%,0%);stroke-opacity:1;stroke-miterlimit:10;" d="M 97.726562 135.914062 L 90.929688 129.121094 "/>
<path style=" stroke:none;fill-rule:nonzero;fill:rgb(100%,100%,100%);fill-opacity:1;" d="M 100.523438 137.203125 L 108.523438 137.203125 L 108.523438 148.203125 L 100.523438 148.203125 Z M 100.523438 137.203125 "/>
<g style="fill:rgb(100%,0%,0%);fill-opacity:1;">
  <use xlink:href="#glyph0-1" x="100.523438" y="145.866211"/>
</g>
<path style="fill:none;stroke-width:1.2;stroke-linecap:butt;stroke-linejoin:miter;stroke:rgb(0%,0%,0%);stroke-opacity:1;stroke-miterlimit:10;" d="M 90.929688 129.121094 L 72.371094 134.101562 "/>
<path style="fill:none;stroke-width:1.2;stroke-linecap:butt;stroke-linejoin:miter;stroke:rgb(0%,0%,0%);stroke-opacity:1;stroke-miterlimit:10;" d="M 72.371094 134.101562 L 58.777344 120.515625 "/>
<path style="fill:none;stroke-width:1.2;stroke-linecap:butt;stroke-linejoin:miter;stroke:rgb(0%,0%,0%);stroke-opacity:1;stroke-miterlimit:10;" d="M 67.816406 135.941406 L 56.941406 125.074219 "/>
<path style="fill:none;stroke-width:1.2;stroke-linecap:butt;stroke-linejoin:miter;stroke:rgb(0%,0%,0%);stroke-opacity:1;stroke-miterlimit:10;" d="M 67.402344 152.664062 L 72.371094 134.101562 "/>
<path style="fill:none;stroke-width:1.2;stroke-linecap:butt;stroke-linejoin:miter;stroke:rgb(0%,0%,0%);stroke-opacity:1;stroke-miterlimit:10;" d="M 58.777344 120.515625 L 40.21875 125.496094 "/>
<path style="fill:none;stroke-width:1.2;stroke-linecap:butt;stroke-linejoin:miter;stroke:rgb(0%,0%,0%);stroke-opacity:1;stroke-miterlimit:10;" d="M 40.21875 125.496094 L 35.25 144.0625 "/>
<path style="fill:none;stroke-width:1.2;stroke-linecap:butt;stroke-linejoin:miter;stroke:rgb(0%,0%,0%);stroke-opacity:1;stroke-miterlimit:10;" d="M 44.089844 128.523438 L 40.113281 143.375 "/>
<path style="fill:none;stroke-width:1.2;stroke-linecap:butt;stroke-linejoin:miter;stroke:rgb(0%,0%,0%);stroke-opacity:1;stroke-miterlimit:10;" d="M 35.25 144.0625 L 48.84375 157.644531 "/>
<path style="fill:none;stroke-width:1.2;stroke-linecap:butt;stroke-linejoin:miter;stroke:rgb(0%,0%,0%);stroke-opacity:1;stroke-miterlimit:10;" d="M 48.84375 157.644531 L 67.402344 152.664062 "/>
<path style="fill:none;stroke-width:1.2;stroke-linecap:butt;stroke-linejoin:miter;stroke:rgb(0%,0%,0%);stroke-opacity:1;stroke-miterlimit:10;" d="M 49.527344 152.78125 L 64.375 148.796875 "/>
</g>
</svg>

<svg xmlns="http://www.w3.org/2000/svg" xmlns:xlink="http://www.w3.org/1999/xlink" width="300pt" height="300pt" viewBox="0 0 300 300"><defs><symbol overflow="visible"><path d="M.453 1.594v-7.938h4.5v7.938zm.5-.5h3.5v-6.938h-3.5zm0 0"/></symbol><symbol overflow="visible" id="a"><path d="M3.547-5.953c-.65 0-1.164.242-1.547.72-.375.48-.563 1.13-.563 1.952 0 .835.188 1.49.563 1.967.383.48.898.72 1.547.72.644 0 1.156-.24 1.53-.72.376-.476.564-1.132.564-1.968 0-.822-.187-1.474-.562-1.954-.375-.477-.887-.72-1.53-.72zm0-.734c.914 0 1.648.312 2.203.937.55.617.828 1.438.828 2.47 0 1.042-.277 1.87-.828 2.483-.555.617-1.29.922-2.203.922-.93 0-1.668-.305-2.22-.922C.774-1.41.5-2.237.5-3.28c0-1.033.273-1.853.828-2.47.55-.625 1.29-.938 2.22-.938zm0 0"/></symbol><symbol overflow="visible" id="b"><path d="M.89-6.563h.876v2.688H5v-2.688h.89V0H5v-3.125H1.766V0H.89zm0 0"/></symbol><symbol overflow="visible" id="c"><path d="M.89-6.563H2.08l2.906 5.485v-5.484h.86V0H4.656L1.75-5.484V0H.89zm0 0"/></symbol></defs><g><path fill="#fff" d="M0 0h300v300H0z"/><path d="M245.668 135.21l13.8 13.798 3.89-5.56zm0 0"/><path d="M245.668 135.21l1.668-19.144M245.668 135.21l-8.707 4.067" stroke-width="1.2" stroke="#000" stroke-miterlimit="10" fill="none"/><path d="M236.96 139.277l-8.706 4.063" stroke-width="1.2" stroke="#00f" stroke-miterlimit="10" fill="none"/><path d="M247.336 116.066l8.707-4.062" stroke-width="1.2" stroke="#000" stroke-miterlimit="10" fill="none"/><path d="M256.043 112.004l8.707-4.063" stroke-width="1.2" stroke="#f00" stroke-miterlimit="10" fill="none"/><path d="M257.75 102.44h15v11h-15zm0 0" fill="#fff"/><g fill="#f00"><use xlink:href="#a" x="257.75" y="111.104"/><use xlink:href="#b" x="265.092" y="111.104"/></g><path d="M228.254 143.34l-7.87-5.508" stroke-width="1.2" stroke="#00f" stroke-miterlimit="10" fill="none"/><path d="M220.383 137.832l-7.875-5.508" stroke-width="1.2" stroke="#000" stroke-miterlimit="10" fill="none"/><path d="M221.254 137.84h14v11h-14zm0 0" fill="#fff"/><g fill="#00f"><use xlink:href="#c" x="221.254" y="146.503"/><use xlink:href="#b" x="228.231" y="146.503"/></g><path d="M214.762 132.52l.832-9.575" stroke-width="1.2" stroke="#000" stroke-miterlimit="10" fill="none"/><path d="M215.594 122.945l.836-9.57" stroke-width="1.2" stroke="#f00" stroke-miterlimit="10" fill="none"/><path d="M210.258 132.125l.832-9.57" stroke-width="1.2" stroke="#000" stroke-miterlimit="10" fill="none"/><path d="M211.09 122.555l.836-9.575" stroke-width="1.2" stroke="#f00" stroke-miterlimit="10" fill="none"/><path d="M195.094 140.45m2.898-.778l-.44-.945m3.34.168l-.884-1.887m3.78 1.11l-1.323-2.833m4.222 2.055l-1.765-3.778m4.66 3.004l-2.203-4.726m5.1 3.95l-2.644-5.673m4.105 5.278l-2.866-6.145" stroke="#000" stroke-miterlimit="10" fill="none"/><path d="M210.176 107.68h8v11h-8zm0 0" fill="#fff"/><use xlink:href="#a" x="210.176" y="116.343" fill="#f00"/><path d="M195.094 140.45l3.015 18.98M195.094 140.45l-15.742-11.016" stroke-width="1.2" stroke="#000" stroke-miterlimit="10" fill="none"/><path d="M179.352 129.434m-.778-2.9l-.945.443m.167-3.34l-1.89.883m1.113-3.782l-2.836 1.325m2.058-4.22l-3.78 1.762m3.003-4.66l-4.723 2.203m3.946-5.1l-5.668 2.643m5.277-4.104l-6.15 2.867" stroke="#000" stroke-miterlimit="10" fill="none"/><path d="M160.207 127.766l19.145 1.668M171.223 112.02l-11.016 15.746" stroke-width="1.2" stroke="#000" stroke-miterlimit="10" fill="none"/><path d="M160.207 127.766m-2.46-1.723l-.438.945m-2.02-2.664l-.88 1.89m-1.578-3.61l-1.32 2.834m-1.137-4.555l-1.762 3.78m-.695-5.5l-2.203 4.728m-.258-6.45l-2.64 5.673m1.402-6.54l-2.865 6.15" stroke="#000" stroke-miterlimit="10" fill="none"/><path d="M160.207 127.766l-4.97 18.562" stroke-width="1.2" stroke="#000" stroke-miterlimit="10" fill="none"/><path d="M155.238 146.328l11.196 15.984 4.793-4.8zm0 0"/><path d="M155.238 146.328l-9.28 2.492" stroke-width="1.2" stroke="#000" stroke-miterlimit="10" fill="none"/><path d="M145.957 148.82l-9.277 2.49" stroke-width="1.2" stroke="#00f" stroke-miterlimit="10" fill="none"/><path d="M168.832 159.914l-4.97 18.563M172.703 162.938l-3.973 14.85M187.39 154.934l-18.558 4.98M163.863 178.477l13.594 13.582M177.457 192.06l18.56-4.982M178.14 187.195l14.848-3.984M196.016 187.078l4.968-18.562M200.984 168.516l-13.593-13.582M196.43 170.355l-10.875-10.867" stroke-width="1.2" stroke="#000" stroke-miterlimit="10" fill="none"/><path d="M136.68 151.31l-6.797-6.794" stroke-width="1.2" stroke="#00f" stroke-miterlimit="10" fill="none"/><path d="M129.883 144.516l-6.797-6.79" stroke-width="1.2" stroke="#000" stroke-miterlimit="10" fill="none"/><path d="M129.68 145.81h14v11h-14zm0 0" fill="#fff"/><g fill="#00f"><use xlink:href="#c" x="129.68" y="154.472"/><use xlink:href="#b" x="136.657" y="154.472"/></g><path d="M125.27 138.31l2.484-9.283" stroke-width="1.2" stroke="#000" stroke-miterlimit="10" fill="none"/><path d="M127.754 129.027l2.48-9.28" stroke-width="1.2" stroke="#f00" stroke-miterlimit="10" fill="none"/><path d="M120.902 137.14l2.48-9.28" stroke-width="1.2" stroke="#000" stroke-miterlimit="10" fill="none"/><path d="M123.383 127.86l2.484-9.282" stroke-width="1.2" stroke="#f00" stroke-miterlimit="10" fill="none"/><path d="M123.086 137.727l-9.28 2.488" stroke-width="1.2" stroke="#000" stroke-miterlimit="10" fill="none"/><path d="M113.805 140.215l-9.282 2.488" stroke-width="1.2" stroke="#f00" stroke-miterlimit="10" fill="none"/><path d="M124.05 113.66h8v11h-8zm0 0" fill="#fff"/><use xlink:href="#a" x="124.051" y="122.323" fill="#f00"/><path d="M104.523 142.703l-6.796-6.79" stroke-width="1.2" stroke="#f00" stroke-miterlimit="10" fill="none"/><path d="M97.727 135.914l-6.797-6.793" stroke-width="1.2" stroke="#000" stroke-miterlimit="10" fill="none"/><path d="M100.523 137.203h8v11h-8zm0 0" fill="#fff"/><use xlink:href="#a" x="100.523" y="145.866" fill="#f00"/><path d="M90.93 129.12l-18.56 4.982M72.37 134.102l-13.593-13.586M67.816 135.94L56.94 125.075M67.402 152.664l4.97-18.562M58.777 120.516l-18.558 4.98M40.22 125.496l-4.97 18.567M44.09 128.523l-3.977 14.852M35.25 144.063l13.594 13.582M48.844 157.645l18.558-4.98M49.527 152.78l14.848-3.983" stroke-width="1.2" stroke="#000" stroke-miterlimit="10" fill="none"/></g></svg>
